!!!OTL@@DE: Die Prager Schlacht
!!!ONB: Volkslied (1800)
!!!OMD: Marschm&auml;ssig
!!!ONB: 6 Mai 1757
!!!OCL: Erk, Ludwig
!!!GCO: Deutscher Liederschatz, Band 2
**kern	**kern	**kern
*staff3	*staff2	*staff1
*Ipiano	*Ipiano	*Ivox
*clefF4	*clefG2	*clefG2
*k[b-]	*k[b-]	*k[b-]
*F:	*F:	*F:
*met(C)	*met(C)	*met(C)
*M4/4	*M4/4	*M4/4
*MM112	*MM112	*MM112
4r	8.f/L	8.f/L
.	16a/Jk	16a/Jk
=1	=1	=1
4F\ 4A\	4c/ 4f/ 4cc/	4cc\
*	*^	*
4F\ 4A\	8.a/L	4c\	8.a/L
.	16f/Jk	.	16f/Jk
*	*v	*v	*
4C\ 4G\ 4B-\	4c/ 4b-/	8.b-\L
*	*^	*
.	.	.	16b-\Jk
4C\ 4G\ 4B-\	8.g/L	4c\	8.g/L
.	16e/Jk	.	16e/Jk
*	*v	*v	*
=2	=2	=2
4F\ 4A\	4c/ 4f/	2f/
4FF/ 4F/	4A/ 4c/ 4f/	.
4FF/ 4F/	8A/ 8c/ 8f/L	8r
.	8f/	8f/
4r	8e/	8e/L
.	8f/J	8f/J
=3	=3	=3
4CC/ 4C/	4c/ 4e/ 4g/	4g/
4FF/ 4F/	4c/ 4f/ 4a/	4a/
4EE/ 4E/	4c/ 4g/ 4b-/	4b-/
4FF/ 4F/	4c/ 4f/ 4a/	4a/
=4	=4	=4
4CC/ 4C/	4c/ 4e/ 4g/	2g/
8.C/L	8.c/L	.
16C/Jk	16c/Jk	.
4C/	4c/	4r
4r	8f/L	8f/L
.	8a/J	8a/J
=5	=5	=5
2FF/ 2F/	8a/ 8cc/L	8cc\L
.	8g/ 8b-/	8b-\J
.	8f/ 8a/	8a/L
.	8e-/ 8g/J	8g/J
8FF/L	4d/ 4f/	4f/
8GG/	.	.
8AA/	4c/ 4e-/	4e-/
8FF/J	.	.
=6	=6	=6
4BB-/	4B-/ 4d/	(4d/
4BB-\ 4B-\	4d/ 4f/	4f/)
4BB-\ 4B-\	4d/ 4f/ 4b-/	4b-\
4r	8r	8r
.	8b-\	8b-\
=7	=7	=7
2BB-/	8b-/ 8dd/L	8dd\L
.	8a/ 8cc/	8cc\J
.	8g/ 8b-/	8b-\L
.	8f/ 8a/J	8a\J
8BB-/L	4d/ 4g/	4g/
8AA/	.	.
8BB-/	4d/ 4f/	4f/
8BBn/J	.	.
=8	=8	=8
4C/	4c/ 4en/	(4en/
4C\ 4c\	4e/ 4g/	4g/)
4C\ 4c\	4e/ 4g/ 4cc/	4cc\
4r	8r	8r
.	8c/	8c/
=9	=9	=9
4FF/	4.A/ 4.c/ 4.f/	4.f/
4F\	.	.
.	8c/ 8f/ 8a/	8a/
4C/	4.c/ 4.e/ 4.g/	4.g/
4E\	.	.
.	8c/ 8g/ 8b-/	8b-\
=10	=10	=10
4F\	8.c/ 8.f/ 8.a/L	8.a/L
.	16f/k	16f/Jk
8B-\L	8dd/ 8ff/	8ff\L
8d\J	8b-/ 8dd/J	8dd\J
4f\	4a/ 4cc/	4.cc\
4E\ 4e\	4g/ 4b-/ 4cc/	.
.	.	8cc\
=11	=11	=11
8F\L	8f\ 8a\ 8ff\L	8ff\L
8AA\ 8A\	8f\ 8cc\	8cc\J
8BB-\ 8B-\	8f\ 8dd\	8dd\L
8D\ 8B-\J	8f\ 8b-\J	8b-\J
4C\ 4A\	4f/ 4cc/	4cc\
4CC/ 4C/	4B-/ 4c/ 4e/	4e/
=12	=12	=12
4FF'/ 4F'/	4A'/ 4c'/ 4f'/	2f/
4FF'/ 4F'/	4A'/ 4c'/ 4f'/	.
4FF'/ 4F'/	4A'/ 4c'/ 4f'/	4r
==	==	==
*-	*-	*-
!!!ENC: Craig Stuart Sapp
!!!END: 2004/05/19/
!!!EFL: 203/600
